lib/logo_tmp/nrk-logo-nrk.svg

<svg width="40" height="16" viewBox="0 0 40 16" fill="none" xmlns="http://www.w3.org/2000/svg">
<path d="M-2.09808e-05 15V1.00127H4.59337V15H-2.09808e-05ZM10.8428 3.22924L13.4844 15H8.45735L5.30305 1.00127H8.12252C8.76905 0.99288 9.39639 1.22079 9.88689 1.64212C10.3782 2.04578 10.7158 2.60615 10.8428 3.22924ZM14.1744 15V1.00127H18.7678V15H14.1744ZM22.2372 6.32478C21.7422 6.32961 21.2552 6.2001 20.8279 5.95013C20.4064 5.70647 20.0563 5.35629 19.8126 4.9347C19.5624 4.50739 19.4329 4.02022 19.4378 3.52504C19.4321 3.03287 19.5618 2.54861 19.8126 2.12516C20.0589 1.70816 20.4086 1.36178 20.8279 1.11961C21.2553 0.869919 21.7423 0.740433 22.2372 0.744947C22.7292 0.739649 23.2133 0.86925 23.6369 1.11961C24.052 1.3639 24.3981 1.70999 24.6423 2.12516C24.8929 2.54873 25.0226 3.03291 25.0172 3.52504C25.0218 4.02018 24.8923 4.50727 24.6423 4.9347C24.4007 5.35444 24.0542 5.70433 23.6369 5.95013C23.2133 6.20097 22.7295 6.33061 22.2372 6.32478ZM25.7269 15V1.00127H30.3207V15H25.7269ZM36.136 8.65127C36.1489 8.66486 36.2475 8.82586 36.4317 9.13432C36.6159 9.44277 36.8557 9.83713 37.1512 10.3173C37.4469 10.7973 37.759 11.3066 38.0874 11.8453C38.4157 12.384 38.7247 12.8934 39.0143 13.3734C39.3028 13.8534 39.6313 14.3956 40 15H34.9531C34.6375 14.4874 34.3515 14.024 34.0952 13.61C33.8389 13.1959 33.5665 12.749 33.2778 12.2692C32.9884 11.7899 32.7023 11.3233 32.4195 10.8694C32.1368 10.4155 31.8937 10.0179 31.6905 9.67657C31.4863 9.33503 31.3449 9.10498 31.2663 8.98646C31.0713 8.69235 30.9559 8.35268 30.9314 8.00064C30.951 7.66276 31.0597 7.33614 31.2465 7.05396C31.3254 6.92252 31.47 6.68917 31.6803 6.35399C31.8906 6.01881 32.137 5.62123 32.4195 5.16118C32.7021 4.70113 32.9882 4.2312 33.2778 3.75144C33.5674 3.27167 33.8398 2.82144 34.0952 2.40082C34.3519 1.98064 34.6379 1.51402 34.9531 1.00095H40L36.0962 7.36941C35.9754 7.55849 35.9073 7.7764 35.899 8.00064C35.912 8.23604 35.9949 8.46237 36.136 8.65127Z" fill="white"/>
</svg>

<svg xmlns="http://www.w3.org/2000/svg" viewBox="0 0 40 16"><path fill="#fff" d="M0 15V1.001h4.593V15H0ZM10.843 3.23 13.484 15H8.457L5.303 1.001h2.82a2.655 2.655 0 0 1 1.764.641c.491.404.829.964.956 1.587ZM14.174 15V1.001h4.594V15h-4.594Zm8.063-8.675a2.78 2.78 0 0 1-2.425-1.39 2.736 2.736 0 0 1-.374-1.41 2.686 2.686 0 0 1 .375-1.4 2.813 2.813 0 0 1 1.015-1.005c.427-.25.914-.38 1.41-.375.491-.005.975.124 1.399.375.415.244.761.59 1.005 1.005.25.424.38.908.375 1.4.005.495-.125.982-.375 1.41a2.8 2.8 0 0 1-1.005 1.015c-.424.251-.907.38-1.4.375ZM25.727 15V1.001h4.594V15h-4.594Zm10.409-6.349c.013.014.111.175.296.483.184.309.424.703.72 1.183a384.154 384.154 0 0 1 1.862 3.056c.289.48.617 1.023.986 1.627h-5.047l-.858-1.39c-.256-.414-.529-.861-.817-1.34-.29-.48-.576-.947-.858-1.4a70.946 70.946 0 0 1-.73-1.193 21.1 21.1 0 0 0-.424-.69A2.04 2.04 0 0 1 30.931 8c.02-.338.129-.665.316-.947.078-.131.223-.365.433-.7a212.59 212.59 0 0 0 1.598-2.603l.817-1.35.858-1.4H40l-3.904 6.368c-.12.19-.189.407-.197.632.013.235.096.461.237.65Z"/></svg>
